src/img/layout/page/index/feedback/background.svg

<svg xmlns="http://www.w3.org/2000/svg" width="619" height="395" fill="none"><g filter="url(#a)"><ellipse cx="407" cy="185.5" fill="#6151FD" fill-opacity=".53" rx="89" ry="62.5"/></g><g filter="url(#b)" style="mix-blend-mode:darken"><ellipse cx="232" cy="216.5" fill="#B770EB" fill-opacity=".65" rx="109" ry="55.5"/></g><path stroke="#0C2B3F" stroke-linecap="round" stroke-linejoin="round" stroke-width="3" d="M408.333 183.333h-16.666a8.333 8.333 0 0 0-8.334 8.333v16.667a8.333 8.333 0 0 0 8.334 8.333h16.666a8.333 8.333 0 0 0 8.334-8.333v-16.667a8.333 8.333 0 0 0-8.334-8.333Z"/><path stroke="#0C2B3F" stroke-linecap="round" stroke-linejoin="round" stroke-width="3" d="M406.667 198.95a6.67 6.67 0 0 1-11.309 5.692 6.667 6.667 0 1 1 11.309-5.692ZM409.167 190.833h.016"/><defs><filter id="a" width="424" height="371" x="195" y="0" color-interpolation-filters="sRGB" filterUnits="userSpaceOnUse"><feFlood flood-opacity="0" result="BackgroundImageFix"/><feBlend in="SourceGraphic" in2="BackgroundImageFix" result="shape"/><feGaussianBlur result="effect1_foregroundBlur_234_1015" stdDeviation="61.5"/></filter><filter id="b" width="464" height="357" x="0" y="38" color-interpolation-filters="sRGB" filterUnits="userSpaceOnUse"><feFlood flood-opacity="0" result="BackgroundImageFix"/><feBlend in="SourceGraphic" in2="BackgroundImageFix" result="shape"/><feGaussianBlur result="effect1_foregroundBlur_234_1015" stdDeviation="61.5"/></filter></defs></svg>

<svg width="619" height="395" viewBox="0 0 619 395" fill="none" xmlns="http://www.w3.org/2000/svg">
<g filter="url(#filter0_f_234_1015)">
<ellipse cx="407" cy="185.5" rx="89" ry="62.5" fill="#6151FD" fill-opacity="0.53"/>
</g>
<g style="mix-blend-mode:darken" filter="url(#filter1_f_234_1015)">
<ellipse cx="232" cy="216.5" rx="109" ry="55.5" fill="#B770EB" fill-opacity="0.65"/>
</g>
<path d="M408.333 183.333H391.667C387.064 183.333 383.333 187.064 383.333 191.666V208.333C383.333 212.935 387.064 216.666 391.667 216.666H408.333C412.936 216.666 416.667 212.935 416.667 208.333V191.666C416.667 187.064 412.936 183.333 408.333 183.333Z" stroke="#0C2B3F" stroke-width="3" stroke-linecap="round" stroke-linejoin="round"/>
<path d="M406.667 198.95C406.872 200.337 406.635 201.754 405.99 202.998C405.344 204.243 404.322 205.252 403.069 205.883C401.817 206.513 400.397 206.733 399.013 206.51C397.629 206.287 396.35 205.633 395.358 204.642C394.367 203.65 393.713 202.371 393.49 200.987C393.267 199.603 393.487 198.183 394.117 196.931C394.748 195.678 395.757 194.656 397.002 194.01C398.246 193.365 399.663 193.128 401.05 193.333C402.465 193.543 403.775 194.202 404.786 195.214C405.798 196.225 406.457 197.535 406.667 198.95Z" stroke="#0C2B3F" stroke-width="3" stroke-linecap="round" stroke-linejoin="round"/>
<path d="M409.167 190.833H409.183" stroke="#0C2B3F" stroke-width="3" stroke-linecap="round" stroke-linejoin="round"/>
<defs>
<filter id="filter0_f_234_1015" x="195" y="0" width="424" height="371" filterUnits="userSpaceOnUse" color-interpolation-filters="sRGB">
<feFlood flood-opacity="0" result="BackgroundImageFix"/>
<feBlend mode="normal" in="SourceGraphic" in2="BackgroundImageFix" result="shape"/>
<feGaussianBlur stdDeviation="61.5" result="effect1_foregroundBlur_234_1015"/>
</filter>
<filter id="filter1_f_234_1015" x="0" y="38" width="464" height="357" filterUnits="userSpaceOnUse" color-interpolation-filters="sRGB">
<feFlood flood-opacity="0" result="BackgroundImageFix"/>
<feBlend mode="normal" in="SourceGraphic" in2="BackgroundImageFix" result="shape"/>
<feGaussianBlur stdDeviation="61.5" result="effect1_foregroundBlur_234_1015"/>
</filter>
</defs>
</svg>
